X: 5644
T: Butterfly, The
R: slip jig
M: 9/8
K: Eminor
K: Emin
|:"Em"B2E G2E F3|B2E G2E FED|B2E G2E F3|"C"B2d d2"D"B AGA:|
|:"Em"B2d e2f g3|"D"B2d g2e dBA|"C"B2d e2f g2a|"D"b2a g2e dBA:|
|:"G"B2 B1 B2A G2A|B3 BAB "D" dBA|"G" B2 B1 B2A G2A|B2d "C"g2e "D"dBA:|

